assets/illustrations/no_connection_1.svg

<svg fill="none" height="280" viewBox="0 0 280 280" width="280" xmlns="http://www.w3.org/2000/svg">
    <path
        d="m84.5562 73.886s30.0238 22.784 75.6678-19.818c40.536-37.8337 73.635 21.8595 73.866 50.446.3 37.03-40.536 66.659-20.718 90.981 19.817 24.322-39.302 64.486-71.164 29.727-39.636-43.239-50.3735-8.107-72.9656-8.107-16.2146 0-49.5048-40.29-27.0243-70.264 18.9171-25.222 8.6-33.593 3.6039-42.337-7.2071-12.6118 9.9083-46.8425 38.7342-30.628z"
        fill="#dee9ff" />
    <path
        d="m205.092 124.235c1.614.6 3.377.64 5.055.254 7.03-1.613 31.203-5.886 27.003 12.846-.915 3.716-15.072 24.53 5.089 32.127 1.478.564 3.04.872 4.621.91 6.208.128 18.509-1.338 23.657-6.578 6.22-6.331-.575-3.329-.575-3.329s-23.644 10.318-31.996-.629c-.929-1.218-1.521-2.987-1.69-4.51-.294-2.64.878-6.129 2.418-9.167 2.085-4.111 12.092-22.604-9.636-27.991-5.005-1.192-12.275-2.262-21.648 1.684-5.468 2.302-4.257 3.655-2.298 4.383z"
        fill="#bdd6f9" />
    <path
        d="m209.93 117.331-6.293 2.356c-2.172.813-3.274 3.233-2.461 5.405l.312.834c.813 2.172 3.233 3.274 5.405 2.461l6.294-2.355c2.172-.813 3.274-3.233 2.461-5.406l-.312-.833c-.813-2.173-3.233-3.275-5.406-2.462z"
        fill="#0e84e5" />
    <path
        d="m171.3 124.147-20.754 7.768c-1.087.406-1.638 1.616-1.231 2.702l.082.219c.406 1.086 1.616 1.637 2.703 1.231l20.754-7.768c1.087-.407 1.638-1.617 1.231-2.703l-.082-.219c-.406-1.086-1.616-1.637-2.703-1.23z"
        fill="#fff" />
    <path
        d="m177.093 139.624-20.755 7.767c-1.086.407-1.637 1.617-1.23 2.703l.081.219c.407 1.086 1.617 1.637 2.703 1.23l20.755-7.767c1.086-.407 1.637-1.617 1.231-2.703l-.082-.219c-.406-1.086-1.617-1.637-2.703-1.23z"
        fill="#fff" />
    <path
        d="m196.255 113.585-16.821 6.295c-2.173.813-3.275 3.234-2.462 5.406l5.744 15.345c.813 2.172 3.233 3.274 5.405 2.461l16.822-6.295c2.172-.813 3.274-3.233 2.461-5.406l-5.743-15.345c-.813-2.172-3.233-3.274-5.406-2.461z"
        fill="#5895f9" />
    <path
        d="m181.172 117.61-16.822 6.296c-2.172.813-3.274 3.233-2.461 5.406l6.852 18.307c.813 2.172 3.233 3.274 5.405 2.461l16.822-6.295c2.172-.813 3.274-3.233 2.461-5.406l-6.852-18.307c-.813-2.173-3.233-3.275-5.405-2.462z"
        fill="#699cff" />
    <path
        d="m183.805 113.895-.132.049c-1.448.542-2.183 2.156-1.641 3.604l9.599 25.647c.542 1.448 2.155 2.183 3.603 1.641l.132-.05c1.449-.542 2.183-2.155 1.641-3.603l-9.598-25.647c-.542-1.448-2.156-2.183-3.604-1.641z"
        fill="#208af2" />
    <path
        d="m12.2816 130.292s33.7831-9.494 28.8784 12.38c-.8518 3.461-13.1129 21.281 1.4919 29.837 3.136 1.837 6.755 2.651 10.3893 2.632 6.516-.034 16.8459-1.288 21.4865-6.011 6.2193-6.331-.5751-3.329-.5751-3.329s-19.4022 7.981-29.3839 1.619c-3.4083-2.172-4.9532-6.378-4.0277-10.313.4731-1.954 1.1934-3.84 2.1437-5.612 2.1708-4.066 12.0921-22.604-9.6359-27.991-5.0053-1.192-12.2751-2.262-21.6488 1.684-9.37369 3.947.8816 5.104.8816 5.104z"
        fill="#bdd6f9" />
    <path
        d="m79.0704 160.906-6.2932 2.356c-2.1725.813-3.2745 3.233-2.4614 5.406l.312.833c.813 2.173 3.2332 3.275 5.4057 2.461l6.2932-2.355c2.1725-.813 3.2744-3.233 2.4614-5.406l-.312-.833c-.813-2.173-3.2333-3.275-5.4057-2.462z"
        fill="#0e84e5" />
    <path
        d="m89.7031 150.552-9.3269 3.491c-2.1725.813-3.2745 3.233-2.4614 5.406l4.4974 12.016c.8131 2.173 3.2333 3.275 5.4057 2.462l9.3269-3.491c2.1725-.813 3.2742-3.233 2.4614-5.406l-4.4974-12.016c-.8131-2.173-3.2333-3.275-5.4057-2.462z"
        fill="#5895f9" />
    <path
        d="m105.23 141.3-13.9088 5.206c-2.1724.813-3.2744 3.233-2.4613 5.406l6.8517 18.307c.8131 2.173 3.2333 3.275 5.4054 2.462l13.909-5.206c2.173-.813 3.275-3.233 2.462-5.406l-6.852-18.307c-.813-2.173-3.233-3.275-5.406-2.462z"
        fill="#699cff" />
    <path
        d="m108.177 137.509-.132.049c-1.449.542-2.183 2.156-1.641 3.604l9.598 25.647c.542 1.448 2.156 2.183 3.604 1.641l.132-.05c1.448-.542 2.183-2.155 1.641-3.604l-9.599-25.646c-.542-1.448-2.155-2.183-3.603-1.641z"
        fill="#208af2" />
    <g fill="#418df9">
        <path
            d="m143.694 121.17c-.501-.056-.961-.303-1.283-.691-.321-.388-.48-.885-.443-1.388l1.038-18.956c.062-1.1323 1.018-1.9926 2.103-1.8925l1.512.14c1.085.1001 1.862 1.12 1.71 2.2445l-2.55 18.816c-.058.501-.308.96-.697 1.282s-.887.481-1.39.445z" />
        <path
            d="m134.733 122.804c-.156.046-.319.061-.481.044-.161-.018-.318-.067-.46-.145-.143-.077-.268-.182-.37-.309-.102-.126-.178-.272-.224-.427l-3.706-11.792c-.108-.335-.078-.7.082-1.013.161-.314.439-.551.775-.659l.959-.29c.165-.048.338-.061.508-.039s.333.079.48.168c.147.088.274.206.373.346s.168.299.202.467l2.747 12.082c.077.324.028.666-.136.957-.164.29-.431.508-.749.61z" />
        <path
            d="m129.732 129.604c-.664.823-2 .813-3.028-.022l-18.251-14.829c-1.091-.886-1.412-2.352-.708-3.224l.982-1.216c.705-.873 2.151-.801 3.183.157l17.27 16.046c.973.903 1.216 2.266.552 3.088z" />
        <path
            d="m138.169 167.906c.47.182.851.539 1.063.996.213.457.239.979.075 1.455l-5.845 18.062c-.349 1.079-1.493 1.666-2.517 1.292l-1.427-.521c-1.023-.374-1.514-1.559-1.08-2.606l7.271-17.541c.185-.47.543-.85 1.002-1.062.458-.212.98-.239 1.458-.075z" />
        <path
            d="m147.25 168.615c.162-.005.324.023.476.081.151.058.29.145.408.257.118.111.213.245.279.393s.103.308.107.471l.572 12.347c.018.352-.103.696-.339.958-.235.263-.565.421-.916.44l-1.002.035c-.172.004-.342-.027-.501-.092s-.302-.162-.422-.285c-.119-.123-.212-.269-.272-.43-.059-.161-.085-.332-.076-.503l.43-12.382c.009-.334.144-.652.376-.891.233-.239.547-.381.88-.399z" />
        <path
            d="m153.822 163.317c.852-.626 2.141-.275 2.921.795l13.86 18.998c.827 1.135.764 2.634-.14 3.298l-1.26.925c-.904.664-2.285.225-3.038-.965l-12.6-19.924c-.708-1.121-.595-2.501.257-3.127z" />
    </g>
</svg>

<svg fill="none" height="280" viewBox="0 0 280 280" width="280" xmlns="http://www.w3.org/2000/svg">
    <path
        d="M84.5562 73.886C84.5562 73.886 114.58 96.67 160.224 54.068C200.76 16.2343 233.859 75.9275 234.09 104.514C234.39 141.544 193.554 171.173 213.372 195.495C233.189 219.817 174.07 259.981 142.208 225.222C102.572 181.983 91.8345 217.115 69.2424 217.115C53.0278 217.115 19.7376 176.825 42.2181 146.851C61.1352 121.629 50.8181 113.258 45.822 104.514C38.6149 91.9022 55.7303 57.6715 84.5562 73.886Z"
        fill="#DEE9FF" />
    <path
        d="M205.092 124.235C206.706 124.835 208.469 124.875 210.147 124.489C217.177 122.876 241.35 118.603 237.15 137.335C236.235 141.051 222.078 161.865 242.239 169.462C243.717 170.026 245.279 170.334 246.86 170.372C253.068 170.5 265.369 169.034 270.517 163.794C276.737 157.463 269.942 160.465 269.942 160.465C269.942 160.465 246.298 170.783 237.946 159.836C237.017 158.618 236.425 156.849 236.256 155.326C235.962 152.686 237.134 149.197 238.674 146.159C240.759 142.048 250.766 123.555 229.038 118.168C224.033 116.976 216.763 115.906 207.39 119.852C201.922 122.154 203.133 123.507 205.092 124.235Z"
        fill="#BDD6F9" />
    <path
        d="M209.93 117.331L203.637 119.687C201.465 120.5 200.363 122.92 201.176 125.092L201.488 125.926C202.301 128.098 204.721 129.2 206.893 128.387L213.187 126.032C215.359 125.219 216.461 122.799 215.648 120.626L215.336 119.793C214.523 117.62 212.103 116.518 209.93 117.331Z"
        fill="#0E84E5" />
    <path
        d="M171.3 124.147L150.546 131.915C149.459 132.321 148.908 133.531 149.315 134.617L149.397 134.836C149.803 135.922 151.013 136.473 152.1 136.067L172.854 128.299C173.941 127.892 174.492 126.682 174.085 125.596L174.003 125.377C173.597 124.291 172.387 123.74 171.3 124.147Z"
        fill="white" />
    <path
        d="M177.093 139.624L156.338 147.391C155.252 147.798 154.701 149.008 155.108 150.094L155.189 150.313C155.596 151.399 156.806 151.95 157.892 151.543L178.647 143.776C179.733 143.369 180.284 142.159 179.878 141.073L179.796 140.854C179.39 139.768 178.179 139.217 177.093 139.624Z"
        fill="white" />
    <path
        d="M196.255 113.585L179.434 119.88C177.261 120.693 176.159 123.114 176.972 125.286L182.716 140.631C183.529 142.803 185.949 143.905 188.121 143.092L204.943 136.797C207.115 135.984 208.217 133.564 207.404 131.391L201.661 116.046C200.848 113.874 198.428 112.772 196.255 113.585Z"
        fill="#5895F9" />
    <path
        d="M181.172 117.61L164.35 123.906C162.178 124.719 161.076 127.139 161.889 129.312L168.741 147.619C169.554 149.791 171.974 150.893 174.146 150.08L190.968 143.785C193.14 142.972 194.242 140.552 193.429 138.379L186.577 120.072C185.764 117.899 183.344 116.797 181.172 117.61Z"
        fill="#699CFF" />
    <path
        d="M183.805 113.895L183.673 113.944C182.225 114.486 181.49 116.1 182.032 117.548L191.631 143.195C192.173 144.643 193.786 145.378 195.234 144.836L195.366 144.786C196.815 144.244 197.549 142.631 197.007 141.183L187.409 115.536C186.867 114.088 185.253 113.353 183.805 113.895Z"
        fill="#208AF2" />
    <path
        d="M12.2816 130.292C12.2816 130.292 46.0647 120.798 41.16 142.672C40.3082 146.133 28.0471 163.953 42.6519 172.509C45.7879 174.346 49.4069 175.16 53.0412 175.141C59.5572 175.107 69.8871 173.853 74.5277 169.13C80.747 162.799 73.9526 165.801 73.9526 165.801C73.9526 165.801 54.5504 173.782 44.5687 167.42C41.1604 165.248 39.6155 161.042 40.541 157.107C41.0141 155.153 41.7344 153.267 42.6847 151.495C44.8555 147.429 54.7768 128.891 33.0488 123.504C28.0435 122.312 20.7737 121.242 11.4 125.188C2.02631 129.135 12.2816 130.292 12.2816 130.292Z"
        fill="#BDD6F9" />
    <path
        d="M79.0704 160.906L72.7772 163.262C70.6047 164.075 69.5027 166.495 70.3158 168.668L70.6278 169.501C71.4408 171.674 73.861 172.776 76.0335 171.962L82.3267 169.607C84.4992 168.794 85.6011 166.374 84.7881 164.201L84.4761 163.368C83.6631 161.195 81.2428 160.093 79.0704 160.906Z"
        fill="#0E84E5" />
    <path
        d="M89.7031 150.552L80.3762 154.043C78.2037 154.856 77.1017 157.276 77.9148 159.449L82.4122 171.465C83.2253 173.638 85.6455 174.74 87.8179 173.927L97.1448 170.436C99.3173 169.623 100.419 167.203 99.6062 165.03L95.1088 153.014C94.2957 150.841 91.8755 149.739 89.7031 150.552Z"
        fill="#5895F9" />
    <path
        d="M105.23 141.3L91.3212 146.506C89.1488 147.319 88.0468 149.739 88.8599 151.912L95.7116 170.219C96.5247 172.392 98.9449 173.494 101.117 172.681L115.026 167.475C117.199 166.662 118.301 164.242 117.488 162.069L110.636 143.762C109.823 141.589 107.403 140.487 105.23 141.3Z"
        fill="#699CFF" />
    <path
        d="M108.177 137.509L108.045 137.558C106.596 138.1 105.862 139.714 106.404 141.162L116.002 166.809C116.544 168.257 118.158 168.992 119.606 168.45L119.738 168.4C121.186 167.858 121.921 166.245 121.379 164.796L111.78 139.15C111.238 137.702 109.625 136.967 108.177 137.509Z"
        fill="#208AF2" />
    <path
        d="M143.694 121.17C143.193 121.114 142.733 120.867 142.411 120.479C142.09 120.091 141.931 119.594 141.968 119.091L143.006 100.135C143.068 99.0027 144.024 98.1424 145.109 98.2425L146.621 98.3825C147.706 98.4826 148.483 99.5025 148.331 100.627L145.781 119.443C145.723 119.944 145.473 120.403 145.084 120.725C144.695 121.047 144.197 121.206 143.694 121.17Z"
        fill="#418DF9" />
    <path
        d="M134.733 122.804C134.577 122.85 134.414 122.865 134.252 122.848C134.091 122.83 133.934 122.781 133.792 122.703C133.649 122.626 133.524 122.521 133.422 122.394C133.32 122.268 133.244 122.122 133.198 121.967L129.492 110.175C129.384 109.84 129.414 109.475 129.574 109.162C129.735 108.848 130.013 108.611 130.349 108.503L131.308 108.213C131.473 108.165 131.646 108.152 131.816 108.174C131.986 108.196 132.149 108.253 132.296 108.342C132.443 108.43 132.57 108.548 132.669 108.688C132.768 108.828 132.837 108.987 132.871 109.155L135.618 121.237C135.695 121.561 135.646 121.903 135.482 122.194C135.318 122.484 135.051 122.702 134.733 122.804Z"
        fill="#418DF9" />
    <path
        d="M129.732 129.604C129.068 130.427 127.732 130.417 126.704 129.582L108.453 114.753C107.362 113.867 107.041 112.401 107.745 111.529L108.727 110.313C109.432 109.44 110.878 109.512 111.91 110.47L129.18 126.516C130.153 127.419 130.396 128.782 129.732 129.604Z"
        fill="#418DF9" />
    <path
        d="M138.169 167.906C138.639 168.088 139.02 168.445 139.232 168.902C139.445 169.359 139.471 169.881 139.307 170.357L133.462 188.419C133.113 189.498 131.969 190.085 130.945 189.711L129.518 189.19C128.495 188.816 128.004 187.631 128.438 186.584L135.709 169.043C135.894 168.573 136.252 168.193 136.711 167.981C137.169 167.769 137.691 167.742 138.169 167.906Z"
        fill="#418DF9" />
    <path
        d="M147.25 168.615C147.412 168.61 147.574 168.638 147.726 168.696C147.877 168.754 148.016 168.841 148.134 168.953C148.252 169.064 148.347 169.198 148.413 169.346C148.479 169.494 148.516 169.654 148.52 169.817L149.092 182.164C149.11 182.516 148.989 182.86 148.753 183.122C148.518 183.385 148.188 183.543 147.837 183.562L146.835 183.597C146.663 183.601 146.493 183.57 146.334 183.505C146.175 183.44 146.032 183.343 145.912 183.22C145.793 183.097 145.7 182.951 145.64 182.79C145.581 182.629 145.555 182.458 145.564 182.287L145.994 169.905C146.003 169.571 146.138 169.253 146.37 169.014C146.603 168.775 146.917 168.633 147.25 168.615Z"
        fill="#418DF9" />
    <path
        d="M153.822 163.317C154.674 162.691 155.963 163.042 156.743 164.112L170.603 183.11C171.43 184.245 171.367 185.744 170.463 186.408L169.203 187.333C168.299 187.997 166.918 187.558 166.165 186.368L153.565 166.444C152.857 165.323 152.97 163.943 153.822 163.317Z"
        fill="#418DF9" />
</svg>
